X: 8494
T: Cream Of The Barley Blenders
R: reel
M: 4/4
K: Fmajor
(3cde|:fefc defd|cAfd cAGA|FA A/A/A dcAc|dggf g2 fg|
a2 gf egfe|dfed cAGA|FDCD FGAC|1 D2 F2 F2 (3cde:|2 D2 F2 F2 dc||
|:Ad d/d/d defg|agfe defd|c2 Ac FcAc|FcAc fefg|
agfe defd|cAfd cAGA|FDCD FGAC|1 D2 F2 F2 dc:|2 D2 F2 F2||

